assets/images/icons/src/beer.svg

<?xml version="1.0" encoding="utf-8"?>
<!-- Generated by IcoMoon.io -->
<!DOCTYPE svg PUBLIC "-//W3C//DTD SVG 1.1//EN" "http://www.w3.org/Graphics/SVG/1.1/DTD/svg11.dtd">
<svg version="1.1" xmlns="http://www.w3.org/2000/svg" xmlns:xlink="http://www.w3.org/1999/xlink" width="13" height="14" viewBox="0 0 13 14">
<path fill="#444444" d="M5 7v-3h-2v2q0 0.414 0.293 0.707t0.707 0.293h1zM13 10.5v1.5h-9v-1.5l1-1.5h-1q-1.242 0-2.121-0.879t-0.879-2.121v-2.5l-0.5-0.5 0.25-1h3.75l0.25-1h7.5l0.25 1.5-0.5 0.25v6.25z"></path>
</svg>

<svg xmlns="http://www.w3.org/2000/svg" width="13" height="14" viewBox="0 0 13 14"><path fill="#444" d="M5 7V4H3v2q0 .414.293.707T4 7h1zm8 3.5V12H4v-1.5L5 9H4q-1.242 0-2.121-.879T1 6V3.5L.5 3l.25-1H4.5l.25-1h7.5l.25 1.5-.5.25V9z"/></svg>
